packages/core/src/svgs/dnxc.svg

<svg width="24" height="24" viewBox="0 0 24 24" fill="none" xmlns="http://www.w3.org/2000/svg">
<g clip-path="url(#clip0_31_9277)">
<path d="M0 0H24V24H0V0Z" fill="url(#paint0_linear_31_9277)"/>
<path d="M5.57153 18.4284H15.0001V17.5713H15.8572V16.7141H16.7144V15.857H17.5715V14.9999H18.4287V8.99986H17.5715V8.14272H16.7144V7.28557H15.8572V6.42843H15.0001V5.57129H9.0001V6.42843H8.14296V7.28557H7.28582V8.14272H6.42868V8.99986H5.57153V18.4284Z" fill="#E97E00"/>
<path d="M6.42847 17.5716H14.1428V16.7144H14.9999V15.8573H15.857V15.0001H16.7142V14.143H17.5713V9.85728H16.7142V9.00014H15.857V8.143H14.9999V7.28585H14.1428V6.42871H9.85704V7.28585H8.9999V8.143H8.14275V9.00014H7.28561V9.85728H6.42847V17.5716Z" fill="#FFCC00"/>
<path d="M5.57153 18.4285V15.4585H6.4201V13.7142H6.85725V12.8571H7.71439V11.1428H8.57153V8.99993H9.42868V8.14279H10.2858V7.28564H13.2858V8.14279H14.143V8.99993H15.8572V9.85707H16.7144V11.9999H14.5715V11.1428H12.8572V11.9999H13.7144V12.8571H14.5715V13.7142H15.4287V14.5714H12.8572V13.7142H12.0001V12.8571H11.143V13.7142H10.2858V14.9999H12.0001V15.8571H12.8572V16.7142H11.143V15.8571H9.42868V18.4285H5.57153Z" fill="url(#paint1_linear_31_9277)"/>
<path d="M15 10.2856V11.1428H15.8571V10.2856H15Z" fill="#6C6C6C"/>
<path d="M12 8.57129V9.42843H12.8571V8.57129H12Z" fill="white"/>
</g>
<defs>
<linearGradient id="paint0_linear_31_9277" x1="4.46571" y1="4.16143" x2="29.2071" y2="32.58" gradientUnits="userSpaceOnUse">
<stop stop-color="#1A1E21"/>
<stop offset="1" stop-color="#06060A"/>
</linearGradient>
<linearGradient id="paint1_linear_31_9277" x1="7.64582" y1="9.2185" x2="19.1315" y2="22.4099" gradientUnits="userSpaceOnUse">
<stop stop-color="#1A1E21"/>
<stop offset="1" stop-color="#06060A"/>
</linearGradient>
<clipPath id="clip0_31_9277">
<rect width="24" height="24" fill="white"/>
</clipPath>
</defs>
</svg>

<svg xmlns="http://www.w3.org/2000/svg" width="24" height="24" fill="none" viewBox="0 0 24 24"><g clip-path="url(#a)"><path fill="url(#b)" d="M0 0h24v24H0z"/><path fill="#E97E00" d="M5.572 18.428H15v-.857h.857v-.857h.857v-.857h.858V15h.857V9h-.857v-.857h-.858v-.857h-.857v-.858H15v-.857H9v.857h-.857v.858h-.857v.857h-.857V9h-.857z"/><path fill="#FC0" d="M6.428 17.572h7.715v-.858H15v-.857h.857V15h.857v-.857h.857V9.857h-.857V9h-.857v-.857H15v-.857h-.857v-.857H9.857v.857H9v.857h-.857V9h-.857v.857h-.858z"/><path fill="url(#c)" d="M5.572 18.429v-2.97h.848v-1.745h.437v-.857h.857v-1.714h.858V9h.857v-.857h.857v-.857h3v.857h.857V9h1.714v.857h.857V12h-2.142v-.857h-1.715V12h.857v.857h.857v.857h.858v.857h-2.572v-.857H12v-.857h-.857v.857h-.857V15H12v.857h.857v.857h-1.714v-.857H9.429v2.572z"/><path fill="#6C6C6C" d="M15 10.286v.857h.857v-.857z"/><path fill="#fff" d="M12 8.571v.857h.857v-.857z"/></g><defs><linearGradient id="b" x1="4.466" x2="29.207" y1="4.161" y2="32.58" gradientUnits="userSpaceOnUse"><stop stop-color="#1A1E21"/><stop offset="1" stop-color="#06060A"/></linearGradient><linearGradient id="c" x1="7.646" x2="19.131" y1="9.219" y2="22.41" gradientUnits="userSpaceOnUse"><stop stop-color="#1A1E21"/><stop offset="1" stop-color="#06060A"/></linearGradient><clipPath id="a"><path fill="#fff" d="M0 0h24v24H0z"/></clipPath></defs></svg>
